X: 42359
T: Welcome Return, The
R: jig
M: 6/8
K: Dmajor
DFA d2 c|dcd AFD|GAB AFD|E/F/EE EDB,|
A,B,D EFD|EFA d2 c|BdB AFD|EFA DB,A,|
DFA d2 c|dcd AFD|GAB AFD|E/F/EE EDB,|
A,B,D EFD|EFA d2 c|BdB AFD|E/F/EE EFA||
Bdg gae|FAd fed|BdB AFD|E/F/EE EDB,|
A,B,D EFD|EFA d2 c|BdB AFD|EFE DFA|
Bdg gae|FAd fed|BdB AFD|E/F/EE EDB,|
A,B,D EFD|EFA d2 c|BdB AFD|EFA DB,A,||

